client/public/images/swipe-left.svg

<svg height="18" viewBox="0 0 16 18" width="16" xmlns="http://www.w3.org/2000/svg"><g fill="none" fill-rule="evenodd" stroke="#303c42" stroke-linecap="round" stroke-linejoin="round" transform="translate(1 1)"><path d="m7.238 5.971-3.738.567c-.44724082.06970565-.83318493.35134054-1.036.756l-1.855 3.738c-.17047772.34126-.2591523.7175278-.2590002 1.099-.0001856.9307406.52555763 1.7816858 1.3580002 2.198l3.29 1.645c.62162287.3111335 1.30686314.4740577 2.002.4760062.45569312.0007524.90885917-.0676945 1.344-.2030062l4.956-1.547.259-.518c.0592332-.1172393.0903872-.2466484.0910039-.378 0-.4677852-.3792187-.847-.8470039-.847h-2.919c-.24261525-.0007342-.46755002-.1270445-.59446585-.3338175s-.13771262-.4645197-.02853415-.6811825l4.277-8.561c.0741123-.1501975.1124465-.31551351.1120039-.483v-.098c-.0181826-.57220002-.4778039-1.03182132-1.0500039-1.05-.4083046.00077264-.7816048.23070392-.966.595l-2.534 5.005-.28-.567c-.25668312-.51070631-.77941697-.83301371-1.351-.833z"/><path d="m10.668 1.232c-3.61123138-1.8476264-8.03304853-.71967305-10.318 2.632l2.8-.7-.952-1.225"/></g></svg>

<?xml version="1.0" encoding="UTF-8"?>
<svg width="16px" height="18px" viewBox="0 0 16 18" version="1.1" xmlns="http://www.w3.org/2000/svg" xmlns:xlink="http://www.w3.org/1999/xlink">
    <title>swipe-left</title>
    <g id="Page-1" stroke="none" stroke-width="1" fill="none" fill-rule="evenodd" stroke-linecap="round" stroke-linejoin="round">
        <g id="Home" transform="translate(-15.000000, -599.000000)" stroke="#303C42">
            <g id="swipe-left" transform="translate(16.000000, 600.000000)">
                <path d="M7.238,5.971 L3.5,6.538 C3.05275918,6.60770565 2.66681507,6.88934054 2.464,7.294 L0.609,11.032 C0.438522277,11.37326 0.3498477,11.7495278 0.349999804,12.131 L0.349999804,12.131 C0.349814202,13.0617406 0.875557425,13.9126858 1.708,14.329 L4.998,15.974 C5.61962287,16.2851335 6.30486314,16.4480577 7,16.4500062 L7,16.4500062 C7.45569312,16.4507586 7.90885917,16.3823117 8.344,16.247 L13.3,14.7 L13.559,14.182 C13.6182332,14.0647607 13.6493872,13.9353516 13.6500039,13.804 L13.6500039,13.804 C13.6500039,13.3362148 13.2707852,12.957 12.803,12.957 L9.884,12.957 C9.64138475,12.9562658 9.41644998,12.8299555 9.28953415,12.6231825 C9.16261832,12.4164095 9.15182153,12.1586628 9.261,11.942 L13.538,3.381 C13.6121123,3.2308025 13.6504465,3.06548649 13.6500039,2.898 L13.6500039,2.8 C13.6318213,2.22779998 13.1722,1.76817868 12.6,1.75 L12.6,1.75 C12.1916954,1.75077264 11.8183952,1.98070392 11.634,2.345 L9.1,7.35 L8.82,6.783 C8.56331688,6.27229369 8.04058303,5.94998629 7.469,5.95 L7.469,5.95 L7.238,5.971 Z" id="Path"></path>
                <path d="M10.668,1.232 C7.05676862,-0.615626403 2.63495147,0.512326954 0.35,3.864 L3.15,3.164 L2.198,1.939" id="Path"></path>
            </g>
        </g>
    </g>
</svg>
